resources/haticons/SVG/angry.svg

<!-- Generated by IcoMoon.io -->
<svg version="1.1" xmlns="http://www.w3.org/2000/svg" width="24" height="24" viewBox="0 0 24 24">
<title>angry</title>
<path d="M12 24c6.627 0 12-5.373 12-12s-5.373-12-12-12-12 5.373-12 12 5.373 12 12 12zM12 2.25c5.385 0 9.75 4.365 9.75 9.75s-4.365 9.75-9.75 9.75-9.75-4.365-9.75-9.75 4.365-9.75 9.75-9.75zM16.502 18.299c-0.918-1.527-2.591-2.549-4.502-2.549s-3.584 1.022-4.502 2.549l-1.93-1.158c1.312-2.181 3.701-3.641 6.432-3.641s5.12 1.46 6.432 3.641l-1.93 1.158zM17.978 6.568c0.1 0.402-0.144 0.809-0.546 0.909-0.413 0.104-0.903 0.284-1.334 0.5 0.25 0.268 0.403 0.627 0.403 1.022 0 0.828-0.672 1.5-1.5 1.5s-1.5-0.672-1.5-1.5c0-0.027 0.001-0.055 0.002-0.082 0.048-1.112 1.060-1.85 1.912-2.277 0.814-0.407 1.62-0.611 1.653-0.619 0.402-0.101 0.809 0.144 0.91 0.546zM6.022 6.568c0.101-0.402 0.508-0.646 0.91-0.546 0.034 0.008 0.839 0.212 1.653 0.619 0.853 0.426 1.865 1.164 1.912 2.277 0.001 0.027 0.002 0.054 0.002 0.082 0 0.828-0.672 1.5-1.5 1.5s-1.5-0.672-1.5-1.5c0-0.395 0.153-0.754 0.403-1.022-0.432-0.216-0.921-0.396-1.334-0.5-0.402-0.1-0.646-0.508-0.546-0.909z"></path>
</svg>

<svg xmlns="http://www.w3.org/2000/svg" width="24" height="24"><path d="M12 24c6.627 0 12-5.373 12-12S18.627 0 12 0 0 5.373 0 12s5.373 12 12 12zm0-21.75c5.385 0 9.75 4.365 9.75 9.75s-4.365 9.75-9.75 9.75S2.25 17.385 2.25 12 6.615 2.25 12 2.25zm4.502 16.049c-.918-1.527-2.591-2.549-4.502-2.549s-3.584 1.022-4.502 2.549l-1.93-1.158C6.88 14.96 9.269 13.5 12 13.5s5.12 1.46 6.432 3.641l-1.93 1.158zm1.476-11.731a.75.75 0 0 1-.546.909 6.877 6.877 0 0 0-1.334.5 1.5 1.5 0 1 1-2.595.94c.048-1.112 1.06-1.85 1.912-2.277a9.007 9.007 0 0 1 1.653-.619.75.75 0 0 1 .91.546zm-11.956 0a.751.751 0 0 1 .91-.546c.034.008.839.212 1.653.619.853.426 1.865 1.164 1.912 2.277l.002.082a1.5 1.5 0 1 1-2.597-1.022 6.9 6.9 0 0 0-1.334-.5.75.75 0 0 1-.546-.909z"/></svg>
